!!!OTL: WANN I HALD FRUA AFSTEH
!!!ARE: Europa, Mitteleuropa, Oesterreich
!!!SCT: E0583
!!!YEM: Copyright 1995, estate of Helmut Schaffrath.
**kern
*ICvox
*Ivox
!! Mixed meters:  3/4; 3/8
*M3/4
*k[f#]
*G:
=1
{4g
8b
8d
8g
8b
=2
4dd
8gg
8g
4b}
=3
{4a
8cc
8d
4f#
=4
4g
8b
8d
4g}
=5
{4g
8b
8d
8g
8b
=6
4dd
8gg
8g
4b}
=7
*M3/8
{8a
16cc
16cc
8a
=8
8g}
{16b
16b
8g
=9
8a
16cc
16cc
8a
=10
8g}
{16b
16b
8g
=11
8a
16cc
16cc
8a
=12
4g}
{16dd
16dd
=13
8gg
16dd
16b
16cc
16a
=14
4g
8r}
==
!!!AGN: Liebes - Lied
!!!ONB: ESAC (Essen Associative Code) Database: ERK1
!!!AMT: irregular
!!!AIN: vox
!!!EED: Helmut Schaffrath
!!!EEV: 1.0
*-
